X:1
T:Se queres força na fraqueza
C:Georg Neumark, 1641
N:Georg Neumark
N:Port. João Wilson Faustini, através do inglês, 1957
V:1
M:3/4
L:1/8
K:Bb
[!shape_m!D2] [G2D2] [A2D2] |[B4D4] [A2D2] |[G4E4] [A2E2] |[^F2D2] [D4A,4] |
w:Se que-res for-ça na fra-que-za, 
w:Os teus la-men-tos re-vol-to-sos 
w:Fi-el pros-se-gue~em tu-a vi-da, 
[F2D2] [F2D2] [E2C2] |[D4A,4] [G2D2] |[EG]4 [^F2D2] |[G6D6] |
w:pe-de~ao Se-nhor, pois tem po-der. 
w:não a-li-vi-am teu pe-sar; 
w:com gra-ti-dão e com lou-vor. 
D2 [G2D2] [A2D2]|[B4D4] [A2D2] |[G4E4] [A2E2] |[^F2D2] [D4A,4] |
w:E-le~há de~ou-vir-te, com cer-te-za, 
w:em teus ca-mi-nhos es-pi-nho-sos 
w:De Deus a gra-ça~é pro-me-ti-da 
[F2D2] [F2D2] [E2C2] |[D4A,4] [G2D2] |[G4E4] [^F2D2] |[G6D6] |
w:e teus pro-ble-mas re-sol-ver. 
w:pro-cu-ra~em Deus teu mal sa-nar. 
w:a quem con-fi-a~em seu a-mor. 
[A2D2] [B2D2] [c2F2] |[d4F4] [d2F2] |[c4G4] d2 & x4 FE|[B6D6] |
w:Quem a-ma crê no bom Se- nhor. 
w:Se tens tris-te-zas e~a-mar- gor, 
w:Deus sem-pre~a-ten-de,~em seu po- der, 
[B2F2] [A2F2] [G2D2] |[^F4D4] [G2B,2] |[G4E4] [^F2D2] |[G6D6] |]
w:Re-ce-be~os fru-tos des-se~a mor. 
w:não os trans-for-mes em ran-cor. 
w:à-que-le que~em seu no-me crer.
V:2
M:3/4
L:1/8
K:Bb
[!shape_l!G,,!shape_d!B,]2 [G,2B,,2] [^F,2D,2] |[G,4E,4] [A,2F,2] |
[B,4E,4] [C2C,2] |[A,2D,2] [^F,4D,4] |[B,2B,,2] [B,2B,,2] [G,2C,2] |
[^F,4D,4] [G,2B,,2] |[C4C,4] [A,2D,2] |[B,6G,,6] |[B,2G,,2] [G,2B,,2] [^F,2D,2] |
[G,4E,4] [A,2F,2] |[B,4E,4] [C2C,2] |[A,2D,2] [^F,4D,4] |[B,2B,,2] [B,2B,,2] [G,2C,2] |
[^F,4D,4] [G,2B,,2] |[C4C,4] [A,2D,2] |[B,6G,,6] |[^F,2D,2] G,2 [A,2=F,2] |
[B,4B,,4] [B,2D,2] |[B,E,]4 [A,2F,2] |[B,6B,,6] |[D2B,,2] [C2F,2] [B,2G,2] |
[A,4D,4] [G,2E,2] |(C3 B,) [A,2D,2] & C,4 x2|[B,6G,,6] |]

